ccss/LG TV 55G2 (i1 Pro 2).ccss
CCSS   

DESCRIPTOR "LG TV 55G2 (i1 Pro 2)"
ORIGINATOR "Argyll ccxxmake"
CREATED "Sun Mar 10 14:17:42 2024"
REFERENCE "X-Rite i1 Pro 2"
REFERENCE_HASH "md5:428a9dd41c40e14223bcd96eee9cc50a"
FIT_METHOD "ΔE*94"
MANUFACTURER_ID "GSM"
MANUFACTURER "LG Electronics"
DISPLAY "LG TV SSCR2"
TECHNOLOGY "LED WOLED"
DISPLAY_TYPE_REFRESH "YES"
SPECTRAL_BANDS "109"
SPECTRAL_START_NM "370.000000"
SPECTRAL_END_NM "730.000000"
SPECTRAL_NORM "1.000000"

NUMBER_OF_FIELDS 110
BEGIN_DATA_FORMAT
SAMPLE_ID SPEC_370 SPEC_373 SPEC_377 SPEC_380 SPEC_383 SPEC_387 SPEC_390 SPEC_393 SPEC_397 SPEC_400 SPEC_403 SPEC_407 SPEC_410 SPEC_413 SPEC_417 SPEC_420 SPEC_423 SPEC_427 SPEC_430 SPEC_433 SPEC_437 SPEC_440 SPEC_443 SPEC_447 SPEC_450 SPEC_453 SPEC_457 SPEC_460 SPEC_463 SPEC_467 SPEC_470 SPEC_473 SPEC_477 SPEC_480 SPEC_483 SPEC_487 SPEC_490 SPEC_493 SPEC_497 SPEC_500 SPEC_503 SPEC_507 SPEC_510 SPEC_513 SPEC_517 SPEC_520 SPEC_523 SPEC_527 SPEC_530 SPEC_533 SPEC_537 SPEC_540 SPEC_543 SPEC_547 SPEC_550 SPEC_553 SPEC_557 SPEC_560 SPEC_563 SPEC_567 SPEC_570 SPEC_573 SPEC_577 SPEC_580 SPEC_583 SPEC_587 SPEC_590 SPEC_593 SPEC_597 SPEC_600 SPEC_603 SPEC_607 SPEC_610 SPEC_613 SPEC_617 SPEC_620 SPEC_623 SPEC_627 SPEC_630 SPEC_633 SPEC_637 SPEC_640 SPEC_643 SPEC_647 SPEC_650 SPEC_653 SPEC_657 SPEC_660 SPEC_663 SPEC_667 SPEC_670 SPEC_673 SPEC_677 SPEC_680 SPEC_683 SPEC_687 SPEC_690 SPEC_693 SPEC_697 SPEC_700 SPEC_703 SPEC_707 SPEC_710 SPEC_713 SPEC_717 SPEC_720 SPEC_723 SPEC_727 SPEC_730 
END_DATA_FORMAT

NUMBER_OF_SETS 4
BEGIN_DATA
1 0.247896 0.114053 0.0955121 0.0687222 0.0558441 0.0580095 0.0602036 0.0467050 0.0307222 0.0274817 0.0236044 0.0549405 0.0943123 0.0977842 0.105019 0.160668 0.249663 0.416827 0.888771 2.292488 6.270598 15.69272 32.54888 55.74209 79.71302 96.03950 100.0000 92.74653 79.40616 64.73153 51.94919 42.18391 35.36551 30.75166 27.22524 23.97446 20.65850 17.35878 14.42035 12.13048 10.65122 10.11956 10.56308 11.88227 13.79765 16.08513 18.59039 21.35719 24.44676 27.70471 30.86123 33.88398 36.57640 38.47568 39.66547 40.53825 40.94809 40.47357 39.12997 37.19910 34.80079 32.23228 29.87467 27.79502 25.80530 23.78073 21.84649 20.14808 18.82486 17.93808 17.60381 17.85011 18.46092 19.09639 19.42991 19.30591 18.61654 17.43850 15.98554 14.42480 12.92820 11.51673 10.17441 8.922034 7.823525 6.849716 6.013613 5.397972 4.945991 4.570780 4.313366 4.022705 3.720910 3.437386 3.140369 2.834947 2.515134 2.152481 1.874473 1.630465 1.420603 1.255752 1.077670 0.944603 0.836097 0.782750 0.730985 0.658596 0.617411 
2 0.0381463 0.0409682 0.00898006 0.0175868 0.0469885 0.0105077 0.0144563 0.0337520 0.0266041 0.0146483 0.0126561 0.0248122 0.00900261 0.00909852 -0.00578557 -0.00576232 0.00513399 0.00650319 0.000688994 0.00197685 0.0145742 0.0318853 0.0876110 0.178331 0.304324 0.397593 0.378653 0.280710 0.182127 0.117613 0.102200 0.148542 0.351180 1.044610 2.773738 5.741691 9.221879 11.89853 13.08822 13.24318 13.32124 13.86744 14.97047 16.95450 19.85754 22.83887 25.34854 28.39734 32.47258 35.94329 37.81139 39.42755 41.32053 41.47013 39.06794 35.89235 32.95837 29.47362 25.01921 20.36406 16.16995 12.48496 9.259006 6.544996 4.416870 2.853276 1.758550 1.039092 0.588324 0.326331 0.167970 0.0962242 0.0576478 0.0465069 0.0369351 0.0349070 0.0240640 0.0249470 0.0238080 0.0209410 0.0347332 0.0334956 0.0278427 0.0221769 0.0176167 0.0371520 0.0152796 0.0277497 0.0478820 0.0374004 0.0557717 0.0520146 0.0643385 0.0699060 0.0801031 0.0665452 0.0669064 0.0847885 0.0699871 0.0894781 0.0886706 0.0921562 0.0841963 0.0893258 0.0557897 0.0679397 0.0685654 0.0674274 0.0918062 
3 0.110875 0.0350458 0.00485516 0.0261099 0.0249641 -0.00424763 -0.00968092 -0.00121013 -0.00784763 -0.000860181 -0.00289653 0.000302091 0.00303304 0.00231169 -0.00666687 -0.00160402 -0.00771922 -0.00130126 0.0108246 0.00943119 -0.00524523 -0.00413532 0.00260629 0.00951084 0.00629913 0.00472646 0.0160475 0.0175031 0.0234832 0.0232930 0.0210496 0.0141662 0.00956712 0.0117843 0.0101654 0.0102375 0.0185573 0.0154518 0.0106963 0.00791155 0.0109658 0.0143282 0.0189441 0.0116685 0.00672872 0.00968917 0.0179208 0.0155219 0.0170500 0.0190121 0.0158073 0.0211143 0.0175980 0.0247428 0.0229937 0.0138689 0.0121355 0.00782707 0.00757767 0.0147202 0.0191688 0.0159536 0.0532514 0.138399 0.401411 1.131580 2.703188 5.501690 9.551909 14.35475 19.33487 24.13766 28.50207 31.99462 34.50237 36.03938 36.32236 35.17578 32.88103 30.07740 27.21894 24.38228 21.43956 18.59223 16.11578 14.14061 12.56270 11.25908 10.11422 9.107689 8.303507 7.664428 7.191036 6.763469 6.294368 5.681437 5.040428 4.387835 3.811603 3.297633 2.874375 2.502264 2.141639 1.811858 1.552559 1.352083 1.179333 1.030584 0.935219 
4 0.0659638 0.0550514 0.0540495 0.0539019 0.0427782 0.00753483 0.00773164 0.00771893 0.0186475 0.0208281 0.0296957 0.0462552 0.0527795 0.0667970 0.0838032 0.140542 0.222512 0.391105 0.854554 2.255322 6.242811 15.66854 32.49640 55.52668 79.07443 94.60033 97.45248 89.09164 74.81106 59.41850 46.07535 35.74882 28.31511 23.02023 18.81620 15.06680 11.52100 8.335545 5.766182 3.903114 2.691274 1.997401 1.661228 1.536072 1.509001 1.509016 1.466725 1.361502 1.225087 1.108187 1.067891 1.126770 1.227875 1.330519 1.378698 1.359700 1.268879 1.124849 0.968343 0.793229 0.640119 0.518139 0.402793 0.320706 0.242840 0.179854 0.136893 0.109603 0.101176 0.0922020 0.0765043 0.0808217 0.0837351 0.0929469 0.105058 0.126193 0.140438 0.162523 0.169791 0.175040 0.183290 0.185264 0.190820 0.199139 0.206286 0.207306 0.220786 0.273318 0.322098 0.319460 0.326107 0.321189 0.293549 0.266741 0.267179 0.217707 0.182032 0.174343 0.166758 0.105407 0.0892693 0.0737700 0.0809030 0.0984475 0.0761051 0.0719905 0.0536369 0.0586485 0.0569616 
END_DATA
